X: 1
T: Orsavalsen efter Bleck\aa Anders Olsson
O: efter G\"ossa Anders
R: waltz
S: Handout for Bruce Sagan's scanfold session 2021-1-11
Z: 2021 John Chambers <jc:trillian.mit.edu>
M: 3/4
L: 1/8
K: D
"^A"|: (DF) |\
A4 A2 | (AB) (AG) (FA) | Td4 (de) | d2 (cA) (de) |\
f4 (fa) | Ta2 (gf) (ec) | (Ac) (eg) (fe) | d2 (Bd) (BG) |
A4 A2 | (3(BcB) (AG) (FA) | d4 (de) | Td2 (cA) (de) |\
f4 (fa) | Ta2 (gf) (ec) | (Ac) (eg) (fe) | d4 :|
"^B"|: g2 |\
b2 (gb) (gb) | Ta2 (fd) (fa) | (ab) (aTg) (ec) | A2 (df) a2 |\
b2 (gb) (gb) | Ta2 (fd) (fa) | (ab) (aTg) (ec) | d4 :|
"^C"|: A2 |\
(A2 d2) g2 | ~f3 (e d2) | d2 (gb) (gb) | Ta3 (f d2) |\
(de) =f2 d2 | e4 =c2- | c2 (Bd) (BG) | A6- |
A2 (f2 a2) | ~g3 (f g2) | (A2 d2) f2 | ~e3 (d e2) |\
(AB) c2 d2 | E3 (^G B2) | (AB) (AG) (EC) | D4 :|
